austria/municipalities/41021.svg

<?xml version="1.0" encoding="UTF-8" standalone="no"?>
<!-- Created with Inkscape (http://www.inkscape.org/) -->
<svg
   xmlns:dc="http://purl.org/dc/elements/1.1/"
   xmlns:cc="http://creativecommons.org/ns#"
   xmlns:rdf="http://www.w3.org/1999/02/22-rdf-syntax-ns#"
   xmlns:svg="http://www.w3.org/2000/svg"
   xmlns="http://www.w3.org/2000/svg"
   xmlns:sodipodi="http://sodipodi.sourceforge.net/DTD/sodipodi-0.dtd"
   xmlns:inkscape="http://www.inkscape.org/namespaces/inkscape"
   width="343.43933"
   height="394.32346"
   id="svg2"
   sodipodi:version="0.32"
   inkscape:version="0.46"
   sodipodi:docname="Traun coat of arms.svg"
   inkscape:output_extension="org.inkscape.output.svg.inkscape"
   version="1.0">
  <defs
     id="defs4">
    <inkscape:perspective
       sodipodi:type="inkscape:persp3d"
       inkscape:vp_x="0 : 197.16173 : 1"
       inkscape:vp_y="0 : 1000 : 0"
       inkscape:vp_z="343.43933 : 197.16173 : 1"
       inkscape:persp3d-origin="171.71967 : 131.44115 : 1"
       id="perspective2395" />
  </defs>
  <sodipodi:namedview
     id="base"
     pagecolor="#ffffff"
     bordercolor="#666666"
     borderopacity="1.0"
     gridtolerance="10000"
     guidetolerance="10"
     objecttolerance="10"
     inkscape:pageopacity="0.0"
     inkscape:pageshadow="2"
     inkscape:zoom="0.73168726"
     inkscape:cx="372.04724"
     inkscape:cy="283.26545"
     inkscape:document-units="px"
     inkscape:current-layer="layer1"
     showgrid="false"
     showguides="true"
     inkscape:guide-bbox="true">
    <sodipodi:guide
       orientation="1,0"
       position="-68.178793,638.57602"
       id="guide3240" />
  </sodipodi:namedview>
  <metadata
     id="metadata7">
    <rdf:RDF>
      <cc:Work
         rdf:about="">
        <dc:format>image/svg+xml</dc:format>
        <dc:type
           rdf:resource="http://purl.org/dc/dcmitype/StillImage" />
      </cc:Work>
    </rdf:RDF>
  </metadata>
  <g
     inkscape:label="Layer 1"
     inkscape:groupmode="layer"
     id="layer1"
     transform="translate(-3.8714266,-3.3579885)">
    <g
       id="g3249"
       transform="matrix(0.5364204,0,0,0.5397815,3.9963916,-170.34601)">
      <path
         id="FrameLeft"
         style="fill:#000000;fill-opacity:1;fill-rule:evenodd;stroke:#000000;stroke-width:6.46700001;stroke-linecap:butt;stroke-linejoin:round;stroke-miterlimit:4;stroke-dasharray:none;stroke-opacity:1"
         d="M 319.78676,1049.1051 L 319.87894,325.0277 L 3.0509535,325.59585 L 3.0106535,740.74307 C 3.0106735,911.01977 143.65827,1049.1051 319.78676,1049.1051 z"
         sodipodi:nodetypes="ccccc" />
      <path
         sodipodi:nodetypes="ccccc"
         d="M 319.99018,1049.1051 L 319.898,325.0277 L 636.72599,325.59585 L 636.76629,740.74307 C 636.76627,911.01977 496.11867,1049.1051 319.99018,1049.1051 z"
         style="fill:#ffffff;fill-opacity:1;fill-rule:evenodd;stroke:#000000;stroke-width:6.46700001;stroke-linecap:butt;stroke-linejoin:round;stroke-miterlimit:4;stroke-dasharray:none;stroke-opacity:1"
         id="FrameRight" />
      <path
         sodipodi:nodetypes="ccccccccccc"
         d="M 636.83032,465.21614 C 636.83032,439.03636 615.6873,417.96997 589.50752,417.96997 L 420.0575,417.9091 L 420.02875,417.89201 C 409.24304,417.87491 400.51275,426.65608 400.52026,437.45645 L 400.52776,437.49986 L 400.59196,987.90187 C 400.90258,1006.8377 411.51686,1022.6766 428.99552,1030.2522 C 557.22535,984.46109 636.10312,869.2388 636.76629,740.74307 L 636.74614,672.60878 L 636.83032,465.21614 z"
         style="fill:#000000;fill-opacity:1;fill-rule:evenodd;stroke:none;stroke-width:1;stroke-linecap:butt;stroke-linejoin:round;stroke-miterlimit:4;stroke-dasharray:none;stroke-opacity:1"
         id="InteriorRight" />
      <path
         id="InteroirLeft"
         style="fill:#ffffff;fill-opacity:1;fill-rule:evenodd;stroke:none;stroke-width:1;stroke-linecap:butt;stroke-linejoin:round;stroke-miterlimit:4;stroke-dasharray:none;stroke-opacity:1"
         d="M 3.9309445,465.21614 C 3.9309445,439.03636 25.073964,417.96997 51.253744,417.96997 L 220.70376,417.9091 L 220.73251,417.89201 C 231.51822,417.87491 240.24851,426.65608 240.241,437.45645 L 240.2335,437.49986 L 240.1693,987.90187 C 239.85868,1006.8377 229.2444,1022.6766 211.76574,1030.2522 C 83.535914,984.46109 4.6581445,869.2388 3.9949745,740.74307 L 4.0151245,672.60878 L 3.9309445,465.21614 z"
         sodipodi:nodetypes="ccccccccccc" />
    </g>
  </g>
</svg>

<svg xmlns="http://www.w3.org/2000/svg" width="343.439" height="394.323" version="1.0"><path style="fill:#000;fill-opacity:1;fill-rule:evenodd;stroke:#000;stroke-width:6.46700001;stroke-linecap:butt;stroke-linejoin:round;stroke-miterlimit:4;stroke-dasharray:none;stroke-opacity:1" d="m319.787 1049.105.092-724.077-316.828.568-.04 415.147c0 170.277 140.647 308.362 316.776 308.362z" transform="matrix(.53642 0 0 .53978 .125 -173.704)"/><path d="m319.99 1049.105-.092-724.077 316.828.568.04 415.147c0 170.277-140.647 308.362-316.776 308.362z" style="fill:#fff;fill-opacity:1;fill-rule:evenodd;stroke:#000;stroke-width:6.46700001;stroke-linecap:butt;stroke-linejoin:round;stroke-miterlimit:4;stroke-dasharray:none;stroke-opacity:1" transform="matrix(.53642 0 0 .53978 .125 -173.704)"/><path d="M636.83 465.216c0-26.18-21.143-47.246-47.322-47.246l-169.45-.06-.03-.018c-10.785-.017-19.515 8.764-19.508 19.564l.008.044.064 550.402c.31 18.936 10.925 34.775 28.404 42.35 128.23-45.79 207.107-161.013 207.77-289.509l-.02-68.134.084-207.393z" style="fill:#000;fill-opacity:1;fill-rule:evenodd;stroke:none;stroke-width:1;stroke-linecap:butt;stroke-linejoin:round;stroke-miterlimit:4;stroke-dasharray:none;stroke-opacity:1" transform="matrix(.53642 0 0 .53978 .125 -173.704)"/><path style="fill:#fff;fill-opacity:1;fill-rule:evenodd;stroke:none;stroke-width:1;stroke-linecap:butt;stroke-linejoin:round;stroke-miterlimit:4;stroke-dasharray:none;stroke-opacity:1" d="M3.93 465.216c0-26.18 21.144-47.246 47.324-47.246l169.45-.06.029-.018c10.785-.017 19.516 8.764 19.508 19.564l-.008.044-.064 550.402c-.31 18.936-10.925 34.775-28.403 42.35C83.536 984.462 4.658 869.24 3.995 740.743l.02-68.134-.084-207.393z" transform="matrix(.53642 0 0 .53978 .125 -173.704)"/></svg>
